svg/emoji_u1fa81.svg

<?xml version="1.0" encoding="utf-8"?>
<!-- Generator: Adobe Illustrator 25.2.3, SVG Export Plug-In . SVG Version: 6.00 Build 0)  -->
<svg version="1.1" id="Layer_2" xmlns="http://www.w3.org/2000/svg" xmlns:xlink="http://www.w3.org/1999/xlink" x="0px" y="0px"
	 viewBox="0 0 128 128" style="enable-background:new 0 0 128 128;" xml:space="preserve">
<g>
	<path style="fill:#BFCCD2;" d="M74.49,114.41c-3.77,0-7.48-1.36-10.79-4.01c-4.93-3.94-5.26-9.94-5.27-10.2
		c-0.03-0.61,0.44-1.12,1.05-1.15c0.59-0.04,1.12,0.44,1.15,1.05c0,0.07,0.32,5.28,4.45,8.58c4.26,3.41,9.24,4.38,14.02,2.74
		c7.21-2.48,13.08-10.49,15.69-21.43c1.27-5.31,1.31-9.86,1.36-14.69c0.05-4.69,0.1-9.54,1.36-15.09c2.5-10.95,9.6-15.8,15.63-15.8
		c0.08,0,0.17,0,0.25,0c7.72,0.17,9.94,3.65,10.05,3.8c0.37,0.49,0.57,1.33,0.06,1.67c-0.5,0.34-1.24,0.06-1.61-0.46
		c-0.08-0.11-2.09-2.66-8.56-2.81c-0.07,0-0.14,0-0.2,0c-5.15,0-11.26,4.33-13.49,14.09c-1.21,5.32-1.26,10.05-1.31,14.62
		c-0.05,4.74-0.1,9.63-1.42,15.18c-2.79,11.68-9.19,20.28-17.12,23C78.05,114.11,76.26,114.41,74.49,114.41z"/>
</g>
<path style="fill:#FF8E00;" d="M38.91,37.35c0.16,0.7,12.54-12.21,12.54-12.21s35.7-5.64,36.03-4.83c0.16,0.39-1.31,5.32-3.4,10.46
	S77.32,48.44,72.5,64.51s-9.78,41.04-11.41,40.98c-0.98-0.03-3.05-3.05-3.05-3.05S38.11,33.81,38.91,37.35z"/>
<path style="fill:#917BF1;" d="M23.64,29.63c0,0-20.89,8.56-21.3,9.37c-0.37,0.75,14.68,15.65,20.94,21.92s12.73,14.06,17.23,19.53
	c4.5,5.46,17.82,22.99,18.65,24.21c0.89,1.3,1.91,0.82,1.91,0.82L44.77,32.62L23.64,29.63z"/>
<path style="fill:#EC3E24;" d="M42.85,9.1c0,0-1.97-2.07-2.61-2.12c-0.06,0-0.48,0.15-1.23,0.72c-3.48,2.69-13.29,10.91-18.72,15.63
	C13.71,29.07,1.9,38.47,2.33,39.01c0.38,0.48,15.58-0.48,23.7-1.43s19.19-2.96,19.19-2.96S47.25,22,46.87,17.98
	C46.48,13.97,42.85,9.1,42.85,9.1z"/>
<path style="fill:#FEB804;" d="M87.48,20.31c0,0-8.31,5.13-20.83,9.05s-21.42,5.26-21.42,5.26c-0.29-0.38-4.98-27.63-4.98-27.63
	s0.33-0.12,0.88,0.04c0.96,0.28,10.8,3.5,21.79,6.28S87.64,18.79,87.48,20.31z"/>
<g>
	<path style="fill:#BFCCD2;" d="M5.14,87.87c-0.38,0-0.75-0.2-0.96-0.56c-0.3-0.53-0.12-1.2,0.41-1.5
		c0.12-0.07,11.69-6.8,24.81-25.07c8.89-12.39,14.25-26.04,14.3-26.17c0.22-0.57,0.86-0.85,1.42-0.63c0.57,0.22,0.85,0.86,0.63,1.42
		c-0.05,0.14-5.5,14.04-14.56,26.66c-13.42,18.7-25.02,25.42-25.5,25.7C5.51,87.82,5.33,87.87,5.14,87.87z"/>
</g>
<g>
	<path style="fill:#BFCCD2;" d="M57.99,95.59c-0.06-0.11-5.76-11.26-12.05-20.13c-7.69-10.85-13.7-16.67-13.76-16.73
		c-0.44-0.42-0.45-1.12-0.03-1.56c0.42-0.44,1.12-0.45,1.56-0.03c0.25,0.24,6.21,6.01,14.03,17.04
		c6.42,9.06,11.42,20.66,11.47,20.77c0.25,0.55,0.14,1.09-0.24,1.23C58.54,96.34,58.23,96.04,57.99,95.59z"/>
</g>
<path style="fill:#B7D214;" d="M71.78,103.1c-0.7,0.14-2.44,2.89-4.31,4.5c-1.7,1.47-2.83,2.06-3.09,2.7
	c-0.26,0.64,0.58,4.76,0.96,6.56c0.39,1.8,0.64,4.5,1.93,4.44c1.29-0.06,5.92-1.29,6.11-2.25c0.19-0.96-6.62-6.56-5.98-7.65
	c0.64-1.09,8.17-1.8,8.42-2.96C75.96,107.86,72.27,103,71.78,103.1z"/>
<path style="fill:#7ADE8D;" d="M79.93,99.85c-0.28,1.12,0.26,4.11,0.58,5.98c0.32,1.86,0.39,4.69,0.64,5.21
	c0.37,0.73,2.76,1.35,5.66,2.25s4.69,1.61,5.72,1.29s0.71-6.17-0.13-6.82c-0.84-0.64-7.65,0.58-7.65,0.58s2.19-10.7,0.77-11.25
	c-0.84-0.32-1.86,0.58-3.15,1.16C81.12,98.81,80.13,99.08,79.93,99.85z"/>
<path style="fill:#A1D2D3;" d="M88.31,87.46c0,0.65,0.96,1.67,1.8,4.31c0.84,2.64,1.61,6.56,2.44,7.01s5.98-1.86,7.65-2.96
	c1.67-1.09,3.86-2.83,3.99-3.79c0.13-0.96-1.35-2.64-2.31-3.47c-0.96-0.84-1.86-2.51-2.44-2.51c-0.58,0-2.11,3.45-2.7,4.44
	c-0.77,1.29-1.74,3.54-1.99,3.34c-0.26-0.19-0.32-8.49-1.93-8.94C91.2,84.43,88.31,86.94,88.31,87.46z"/>
<path style="fill:#56C2F9;" d="M90.22,67.25c-0.5,0.59,0.45,4.18,1.86,7.14s4.05,6.49,5.34,6.24c0.63-0.13,1.21-1.83,3.28-4.63
	c2.19-2.96,3.66-4.69,3.66-5.21c0-0.84-5.55-3.2-6.3-3.28c-0.58-0.06-1.86,4.24-1.86,4.24s-0.71-3.99-0.84-4.11
	C94.59,66.87,90.61,66.8,90.22,67.25z"/>
<path style="fill:#907AFA;" d="M98.26,59.86c1.54,0.39,3.82,0.64,5.08,1.09c3.73,1.35,5.4,1.93,6.17,1.93c1.05,0,1.72-7.5,0.58-8.17
	c-1.54-0.9-10.06,2.55-10.54,2.19c-0.26-0.19,0.26-10.54-0.58-11.38c-0.9-0.9-1.54,0-3.34,0.51c-0.75,0.21-2.74,0.73-2.89,1.22
	c-0.39,1.22,2.76,8.87,3.21,9.77C96.39,57.93,97.48,59.67,98.26,59.86z"/>
<path style="fill:#DCBCF6;" d="M109.44,46c0,0.45,7.84,9.64,8.36,9.77c0.51,0.13,3.54-3.34,3.41-4.05
	c-0.13-0.71-6.69-5.72-6.69-6.24c0-0.51,7.27-6.04,7.07-6.56c-0.19-0.51-3.41-3.54-4.18-3.41C116.64,35.65,109.44,44.72,109.44,46z"
	/>
</svg>

<?xml version="1.0" encoding="UTF-8" standalone="no"?>
<!DOCTYPE svg PUBLIC "-//W3C//DTD SVG 1.1//EN" "http://www.w3.org/Graphics/SVG/1.1/DTD/svg11.dtd">
<svg width="100%" height="100%" viewBox="0 0 128 128" version="1.1" xmlns="http://www.w3.org/2000/svg" xmlns:xlink="http://www.w3.org/1999/xlink" xml:space="preserve" xmlns:serif="http://www.serif.com/" style="fill-rule:evenodd;clip-rule:evenodd;stroke-linejoin:round;stroke-miterlimit:2;">
    <g>
        <path d="M74.49,114.41C70.72,114.41 67.01,113.05 63.7,110.4C58.77,106.46 58.44,100.46 58.43,100.2C58.4,99.59 58.87,99.08 59.48,99.05C60.07,99.01 60.6,99.49 60.63,100.1C60.63,100.17 60.95,105.38 65.08,108.68C69.34,112.09 74.32,113.06 79.1,111.42C86.31,108.94 92.18,100.93 94.79,89.99C96.06,84.68 96.1,80.13 96.15,75.3C96.2,70.61 96.25,65.76 97.51,60.21C100.01,49.26 107.11,44.41 113.14,44.41L113.39,44.41C121.11,44.58 123.33,48.06 123.44,48.21C123.81,48.7 124.01,49.54 123.5,49.88C123,50.22 122.26,49.94 121.89,49.42C121.81,49.31 119.8,46.76 113.33,46.61L113.13,46.61C107.98,46.61 101.87,50.94 99.64,60.7C98.43,66.02 98.38,70.75 98.33,75.32C98.28,80.06 98.23,84.95 96.91,90.5C94.12,102.18 87.72,110.78 79.79,113.5C78.05,114.11 76.26,114.41 74.49,114.41Z" style="fill:rgb(191,204,210);fill-rule:nonzero;"/>
    </g>
    <path d="M38.91,37.35C39.07,38.05 51.45,25.14 51.45,25.14C51.45,25.14 87.15,19.5 87.48,20.31C87.64,20.7 86.17,25.63 84.08,30.77C81.99,35.91 77.32,48.44 72.5,64.51C67.68,80.58 62.72,105.55 61.09,105.49C60.11,105.46 58.04,102.44 58.04,102.44C58.04,102.44 38.11,33.81 38.91,37.35Z" style="fill:rgb(255,143,0);fill-rule:nonzero;"/>
    <path d="M23.64,29.63C23.64,29.63 2.75,38.19 2.34,39C1.97,39.75 17.02,54.65 23.28,60.92C29.54,67.19 36.01,74.98 40.51,80.45C45.01,85.91 58.33,103.44 59.16,104.66C60.05,105.96 61.07,105.48 61.07,105.48L44.77,32.62L23.64,29.63Z" style="fill:rgb(25,149,183);fill-rule:nonzero;"/>
    <path d="M42.85,9.1C42.85,9.1 40.88,7.03 40.24,6.98C40.18,6.98 39.76,7.13 39.01,7.7C35.53,10.39 25.72,18.61 20.29,23.33C13.71,29.07 1.9,38.47 2.33,39.01C2.71,39.49 17.91,38.53 26.03,37.58C34.15,36.63 45.22,34.62 45.22,34.62C45.22,34.62 47.25,22 46.87,17.98C46.48,13.97 42.85,9.1 42.85,9.1Z" style="fill:rgb(64,192,231);fill-rule:nonzero;"/>
    <path d="M87.48,20.31C87.48,20.31 79.17,25.44 66.65,29.36C54.13,33.28 45.23,34.62 45.23,34.62C44.94,34.24 40.25,6.99 40.25,6.99C40.25,6.99 40.58,6.87 41.13,7.03C42.09,7.31 51.93,10.53 62.92,13.31C73.91,16.09 87.64,18.79 87.48,20.31Z" style="fill:rgb(255,179,0);fill-rule:nonzero;"/>
    <g>
        <path d="M5.14,87.87C4.76,87.87 4.39,87.67 4.18,87.31C3.88,86.78 4.06,86.11 4.59,85.81C4.71,85.74 16.28,79.01 29.4,60.74C38.29,48.35 43.65,34.7 43.7,34.57C43.92,34 44.56,33.72 45.12,33.94C45.69,34.16 45.97,34.8 45.75,35.36C45.7,35.5 40.25,49.4 31.19,62.02C17.77,80.72 6.17,87.44 5.69,87.72C5.51,87.82 5.33,87.87 5.14,87.87Z" style="fill:rgb(191,204,210);fill-rule:nonzero;"/>
    </g>
    <g>
        <path d="M57.99,95.59C57.93,95.48 52.23,84.33 45.94,75.46C38.25,64.61 32.24,58.79 32.18,58.73C31.74,58.31 31.73,57.61 32.15,57.17C32.57,56.73 33.27,56.72 33.71,57.14C33.96,57.38 39.92,63.15 47.74,74.18C54.16,83.24 59.16,94.84 59.21,94.95C59.46,95.5 59.35,96.04 58.97,96.18C58.54,96.34 58.23,96.04 57.99,95.59Z" style="fill:rgb(191,204,210);fill-rule:nonzero;"/>
    </g>
    <path d="M71.78,103.1C71.08,103.24 69.34,105.99 67.47,107.6C65.77,109.07 64.64,109.66 64.38,110.3C64.12,110.94 64.96,115.06 65.34,116.86C65.73,118.66 65.98,121.36 67.27,121.3C68.56,121.24 73.19,120.01 73.38,119.05C73.57,118.09 66.76,112.49 67.4,111.4C68.04,110.31 75.57,109.6 75.82,108.44C75.96,107.86 72.27,103 71.78,103.1Z" style="fill:rgb(142,197,79);fill-rule:nonzero;"/>
    <path d="M79.93,99.85C79.65,100.97 80.19,103.96 80.51,105.83C80.83,107.69 80.9,110.52 81.15,111.04C81.52,111.77 83.91,112.39 86.81,113.29C89.71,114.19 91.5,114.9 92.53,114.58C93.56,114.26 93.24,108.41 92.4,107.76C91.56,107.12 84.75,108.34 84.75,108.34C84.75,108.34 86.94,97.64 85.52,97.09C84.68,96.77 83.66,97.67 82.37,98.25C81.12,98.81 80.13,99.08 79.93,99.85Z" style="fill:rgb(27,187,172);fill-rule:nonzero;"/>
    <path d="M88.31,87.46C88.31,88.11 89.27,89.13 90.11,91.77C90.95,94.41 91.72,98.33 92.55,98.78C93.38,99.23 98.53,96.92 100.2,95.82C101.87,94.73 104.06,92.99 104.19,92.03C104.32,91.07 102.84,89.39 101.88,88.56C100.92,87.72 100.02,86.05 99.44,86.05C98.86,86.05 97.33,89.5 96.74,90.49C95.97,91.78 95,94.03 94.75,93.83C94.49,93.64 94.43,85.34 92.82,84.89C91.2,84.43 88.31,86.94 88.31,87.46Z" style="fill:rgb(98,205,234);fill-rule:nonzero;"/>
    <path d="M90.22,67.25C89.72,67.84 90.67,71.43 92.08,74.39C93.49,77.35 96.13,80.88 97.42,80.63C98.05,80.5 98.63,78.8 100.7,76C102.89,73.04 104.36,71.31 104.36,70.79C104.36,69.95 98.81,67.59 98.06,67.51C97.48,67.45 96.2,71.75 96.2,71.75C96.2,71.75 95.49,67.76 95.36,67.64C94.59,66.87 90.61,66.8 90.22,67.25Z" style="fill:rgb(46,130,189);fill-rule:nonzero;"/>
    <path d="M98.26,59.86C99.8,60.25 102.08,60.5 103.34,60.95C107.07,62.3 108.74,62.88 109.51,62.88C110.56,62.88 111.23,55.38 110.09,54.71C108.55,53.81 100.03,57.26 99.55,56.9C99.29,56.71 99.81,46.36 98.97,45.52C98.07,44.62 97.43,45.52 95.63,46.03C94.88,46.24 92.89,46.76 92.74,47.25C92.35,48.47 95.5,56.12 95.95,57.02C96.39,57.93 97.48,59.67 98.26,59.86Z" style="fill:rgb(165,79,180);fill-rule:nonzero;"/>
    <path d="M109.44,46C109.44,46.45 117.28,55.64 117.8,55.77C118.31,55.9 121.34,52.43 121.21,51.72C121.08,51.01 114.52,46 114.52,45.48C114.52,44.97 121.79,39.44 121.59,38.92C121.4,38.41 118.18,35.38 117.41,35.51C116.64,35.65 109.44,44.72 109.44,46Z" style="fill:rgb(235,122,164);fill-rule:nonzero;"/>
</svg>
